X:132
%%etbk:tnset id:47,pos:1,rep:3x,ant:
%%etbk:wsite http://www.thesession.org/tunes/display/116
%%etbk:video src:ytube,cde:njeGP4vTXNM,desc:
%%etbk:pldat 2016-04-11T18:43,2016-03-20T11:33,2015-07-29T18:09,2015-05-17T16:32,2015-02-18T18:03,2015-02-17T18:05,2015-02-12T19:50,2014-12-11T18:51,2014-11-19T16:48,2014-11-15T15:57,2014-09-22T18:15,2014-06-03T17:33,2014-03-21T15:58,2014-03-09T16:51,2014-03-01T17:41,2014-02-27T18:20,2014-02-26T18:00,2014-02-06T18:21,2013-11-19T16:34,2013-10-21T18:57,2013-09-12T18:50,2013-08-26T18:50,2013-05-22T17:28,2013-05-21T17:32,2013-05-10T16:30,2013-05-05T14:51
T: Wind That Shakes The Barley, The
Z: Piano Box Version by Martin Fleischmann
H: Created 2013-02-19 /  Last Modified 2013-02-19
S: As played by Bobby Gardiner in Custy's Music Shop
M: 4/4
L: 1/8
R: reel
K: Dmaj
|: "D"!1!A{d}!1!A!2!F!4!A !4!A!1!D!2!F!4!A | "G"!5!B!1!D!2!GD !4!BD!5!dD | "D"!2!F!4!AA!2!F !1!AB!3!d!4!e |1 "A"!3!f!5!a!2!e!1!d !2!B!4!ddB :|2 "A"!5!f!3!ded !1!B!2!c!1!de |
| "D"!3![f3d]a "G"!4![g3d]e | "D"!3!faf!1!d !2!B!3!c!1!de | !3!fdf!5!a "G"!4!g!1!d!3!g!5!b | "A"!4!afe!1!d !2!B!3!c!1!de |
"D"!3!(3fed fd "G"!4!gdgd | "D"!3!fdfd !2!e!1!d!2!B!1!d | !1!defg !5!a!1!d!4!a!5!b | "A"!4!afe!1!d !2!B!4!ddB |


